!!!OTL: Yi xi yishang er wang lang
!!!ARE: Asia, China,ÿHubei, Jinmen
!! I, 440
!!!SCT: C1449
!!!YEM: Copyright 1995, estate of Helmut Schaffrath.
**kern
*ICvox
*Ivox
*M2/4
*k[f#c#g#]
*A:
{4b
8ee
8cc#
=1
4b
8a
8f#
=2
4a
8a
8b
=3
8f#
8e
4e}
=4
{8a
8f#
8a
8b
=5
8f#
8e
4e
=6
8e
8c#
8f#
8a
=7
8e
4.e}
=8
{8f#
16f#
16a
8b
8cc#
=9
8b
8cc#
8b
8a
=10
8f#
16f#
16a
8e
8f#
=11
16e
16f#
4.a}
=12
{8b
8cc#
8b
8cc#
=13
8f#
8a
8a
8r
=14
8a
16f#
16e
16c#
16e
8f#
=15
8e
4.e}
=16
{4a
8a
8b
=17
8f#
8e
4e
=18
4e
8e
8f#
=19
4a
4f#}
=20
{8b
8cc#
8b
8cc#
=21
8e
8f#
4a
=22
8a
8f#
8a
16a
16b
=23
8f#
8e
4e}
==
!!!AGN: Shange, Tiange, Checaoge
!!!ONB: ESAC (Essen Associative Code) Database: HUANG
!!!AMT: simple duple
!!!AIN: vox
!!!EED: Helmut Schaffrath
!!!EEV: 1.0
*-
